static/img/kroki/eda4fa3b924cd7e6c2d17e39aa92e765.svg

<?xml version="1.0" encoding="us-ascii" standalone="no"?><svg xmlns="http://www.w3.org/2000/svg" xmlns:xlink="http://www.w3.org/1999/xlink" contentStyleType="text/css" height="352px" preserveAspectRatio="none" style="width:449px;height:352px;" version="1.1" viewBox="0 0 449 352" width="449px" zoomAndPan="magnify"><defs/><g><!--class azure_network_interface--><g id="elem_azure_network_interface"><rect codeLine="22" fill="#3D176E" height="39.7891" id="azure_network_interface" rx="2.5" ry="2.5" style="stroke:#000D19;stroke-width:0.5;" width="250" x="115.5" y="306.37"/><ellipse cx="130.5" cy="326.2645" fill="#ADD1B2" rx="11" ry="11" style="stroke:#181818;stroke-width:1.0;"/><path d="M133.4688,331.9052 Q132.8906,332.202 132.25,332.3427 Q131.6094,332.4989 130.9063,332.4989 Q128.4063,332.4989 127.0781,330.8583 Q125.7656,329.202 125.7656,326.077 Q125.7656,322.952 127.0781,321.2958 Q128.4063,319.6395 130.9063,319.6395 Q131.6094,319.6395 132.25,319.7958 Q132.9063,319.952 133.4688,320.2489 L133.4688,322.9677 Q132.8438,322.3895 132.25,322.1239 Q131.6563,321.8427 131.0313,321.8427 Q129.6875,321.8427 129,322.9208 Q128.3125,323.9833 128.3125,326.077 Q128.3125,328.1708 129,329.2489 Q129.6875,330.3114 131.0313,330.3114 Q131.6563,330.3114 132.25,330.0458 Q132.8438,329.7645 133.4688,329.1864 L133.4688,331.9052 Z " fill="#000000"/><text fill="#D9B8FF" font-family="Helvetica" font-size="17" lengthAdjust="spacing" textLength="208" x="149.5" y="332.1498">azure_network_interface</text></g><!--class azure_network_security_group--><g id="elem_azure_network_security_group"><rect codeLine="24" fill="#3D176E" height="39.7891" id="azure_network_security_group" rx="2.5" ry="2.5" style="stroke:#000D19;stroke-width:0.5;" width="299" x="7" y="106.79"/><ellipse cx="22" cy="126.6845" fill="#ADD1B2" rx="11" ry="11" style="stroke:#181818;stroke-width:1.0;"/><path d="M24.9688,132.3252 Q24.3906,132.622 23.75,132.7627 Q23.1094,132.9189 22.4063,132.9189 Q19.9063,132.9189 18.5781,131.2783 Q17.2656,129.622 17.2656,126.497 Q17.2656,123.372 18.5781,121.7158 Q19.9063,120.0595 22.4063,120.0595 Q23.1094,120.0595 23.75,120.2158 Q24.4063,120.372 24.9688,120.6689 L24.9688,123.3877 Q24.3438,122.8095 23.75,122.5439 Q23.1563,122.2627 22.5313,122.2627 Q21.1875,122.2627 20.5,123.3408 Q19.8125,124.4033 19.8125,126.497 Q19.8125,128.5908 20.5,129.6689 Q21.1875,130.7314 22.5313,130.7314 Q23.1563,130.7314 23.75,130.4658 Q24.3438,130.1845 24.9688,129.6064 L24.9688,132.3252 Z " fill="#000000"/><text fill="#D9B8FF" font-family="Helvetica" font-size="17" lengthAdjust="spacing" textLength="257" x="41" y="132.5698">azure_network_security_group</text></g><!--class azure_subnet--><g id="elem_azure_subnet"><rect codeLine="26" fill="#3D176E" height="39.7891" id="azure_subnet" rx="2.5" ry="2.5" style="stroke:#000D19;stroke-width:0.5;" width="154" x="180.5" y="7"/><ellipse cx="195.5" cy="26.8945" fill="#ADD1B2" rx="11" ry="11" style="stroke:#181818;stroke-width:1.0;"/><path d="M198.4688,32.5352 Q197.8906,32.832 197.25,32.9727 Q196.6094,33.1289 195.9063,33.1289 Q193.4063,33.1289 192.0781,31.4883 Q190.7656,29.832 190.7656,26.707 Q190.7656,23.582 192.0781,21.9258 Q193.4063,20.2695 195.9063,20.2695 Q196.6094,20.2695 197.25,20.4258 Q197.9063,20.582 198.4688,20.8789 L198.4688,23.5977 Q197.8438,23.0195 197.25,22.7539 Q196.6563,22.4727 196.0313,22.4727 Q194.6875,22.4727 194,23.5508 Q193.3125,24.6133 193.3125,26.707 Q193.3125,28.8008 194,29.8789 Q194.6875,30.9414 196.0313,30.9414 Q196.6563,30.9414 197.25,30.6758 Q197.8438,30.3945 198.4688,29.8164 L198.4688,32.5352 Z " fill="#000000"/><text fill="#D9B8FF" font-family="Helvetica" font-size="17" lengthAdjust="spacing" textLength="112" x="214.5" y="32.7798">azure_subnet</text></g><!--class azure_virtual_machine--><g id="elem_azure_virtual_machine"><rect codeLine="28" fill="#3D176E" height="39.7891" id="azure_virtual_machine" rx="2.5" ry="2.5" style="stroke:#000D19;stroke-width:0.5;" width="233" x="209" y="206.58"/><ellipse cx="224" cy="226.4745" fill="#ADD1B2" rx="11" ry="11" style="stroke:#181818;stroke-width:1.0;"/><path d="M226.9688,232.1152 Q226.3906,232.412 225.75,232.5527 Q225.1094,232.7089 224.4063,232.7089 Q221.9063,232.7089 220.5781,231.0683 Q219.2656,229.412 219.2656,226.287 Q219.2656,223.162 220.5781,221.5058 Q221.9063,219.8495 224.4063,219.8495 Q225.1094,219.8495 225.75,220.0058 Q226.4063,220.162 226.9688,220.4589 L226.9688,223.1777 Q226.3438,222.5995 225.75,222.3339 Q225.1563,222.0527 224.5313,222.0527 Q223.1875,222.0527 222.5,223.1308 Q221.8125,224.1933 221.8125,226.287 Q221.8125,228.3808 222.5,229.4589 Q223.1875,230.5214 224.5313,230.5214 Q225.1563,230.5214 225.75,230.2558 Q226.3438,229.9745 226.9688,229.3964 L226.9688,232.1152 Z " fill="#000000"/><text fill="#D9B8FF" font-family="Helvetica" font-size="17" lengthAdjust="spacing" textLength="191" x="243" y="232.3598">azure_virtual_machine</text></g><!--link azure_network_security_group to azure_network_interface--><g id="link_azure_network_security_group_azure_network_interface"><path codeLine="30" d="M160.45,146.75 C165.78,170.67 176.39,212.65 191.5,246.37 C201.13,267.85 212.287,285.5622 223.047,301.0522 " fill="none" id="azure_network_security_group-to-azure_network_interface" style="stroke:#1A83AF;stroke-width:2.0;"/><polygon fill="#1A83AF" points="226.47,305.98,224.6206,296.3063,223.6175,301.8735,218.0503,300.8704,226.47,305.98" style="stroke:#1A83AF;stroke-width:2.0;"/></g><!--link azure_network_security_group to azure_virtual_machine--><g id="link_azure_network_security_group_azure_virtual_machine"><path codeLine="31" d="M189.89,147.01 C219.52,164.15 257.3772,186.0541 286.9872,203.1941 " fill="none" id="azure_network_security_group-to-azure_virtual_machine" style="stroke:#1A83AF;stroke-width:2.0;"/><polygon fill="#1A83AF" points="292.18,206.2,286.3948,198.2294,287.8527,203.6951,282.3869,205.153,292.18,206.2" style="stroke:#1A83AF;stroke-width:2.0;"/></g><!--link azure_subnet to azure_network_security_group--><g id="link_azure_subnet_azure_network_security_group"><path codeLine="32" d="M237.55,47.22 C219.84,64.36 198.4215,85.1073 180.7215,102.2373 " fill="none" id="azure_subnet-to-azure_network_security_group" style="stroke:#1A83AF;stroke-width:2.0;"/><polygon fill="#1A83AF" points="176.41,106.41,185.659,103.0254,180.0029,102.9328,180.0955,97.2767,176.41,106.41" style="stroke:#1A83AF;stroke-width:2.0;"/></g><!--link azure_subnet to azure_virtual_machine--><g id="link_azure_subnet_azure_virtual_machine"><path codeLine="33" d="M280.17,47.07 C295.58,61.66 314.71,83.2 323.5,106.79 C335.88,140.01 333.402,176.2237 329.862,200.3237 " fill="none" id="azure_subnet-to-azure_virtual_machine" style="stroke:#1A83AF;stroke-width:2.0;"/><polygon fill="#1A83AF" points="328.99,206.26,334.2555,197.9369,329.7166,201.3131,326.3404,196.7742,328.99,206.26" style="stroke:#1A83AF;stroke-width:2.0;"/></g><!--link azure_virtual_machine to azure_network_interface--><g id="link_azure_virtual_machine_azure_network_interface"><path codeLine="34" d="M308.71,246.8 C293.81,263.94 276.0849,284.3205 261.1949,301.4605 " fill="none" id="azure_virtual_machine-to-azure_network_interface" style="stroke:#1A83AF;stroke-width:2.0;"/><polygon fill="#1A83AF" points="257.26,305.99,266.182,301.819,260.5391,302.2154,260.1427,296.5725,257.26,305.99" style="stroke:#1A83AF;stroke-width:2.0;"/></g><!--SRC=[bP1DJy9048Rl_8fDE9DGYG8Naq92z4ACU3EccUxEqatRtMPs2m7ZVvUAcgKBHQyppxmVaoc13ClAxLY9POfaUpPNkWA2aiL4PZitXI7MbnBaQDnUBensLu4bbCWUiDYWKnpQn4kcUAxHMdRZhMR0ypMPMekZl2FGzh12xJngNe2riNEaqjgX5qPCqucKRR8jsX-9Q7o70MP887qZm-5GHDCsSjMgi_SliL9xP97_jALn6CGCBBwepfGDuOKCYlxiBsPy0Y6KNhDRR_Pyp4GQwMI-oa2ORKDBAAnlOnqI6hUhS1wqmkb4oF5P-F4Ip9lFCTZNX8b6jpMK9qeVxYHmPE-zZxE4HLwJShkaaQm2pDRfWGp66qMkXY8fWMTA7zKxTGUl_IYUZEB5s-3-KiP_AxHIz4uYTpYUAbyzEs_JVi5V6du2]--></g></svg>

<svg xmlns="http://www.w3.org/2000/svg" width="449" height="352" viewBox="0 0 449 352"><rect width="250" height="39.789" x="115.5" y="306.37" fill="#3D176E" rx="2.5" ry="2.5" style="stroke:#000d19;stroke-width:.5"/><circle cx="130.5" cy="326.264" r="11" fill="#ADD1B2" style="stroke:#181818;stroke-width:1"/><path d="M133.469 331.905q-.578.297-1.219.438-.64.156-1.344.156-2.5 0-3.828-1.64-1.312-1.657-1.312-4.782t1.312-4.781q1.328-1.656 3.828-1.656.703 0 1.344.156.656.156 1.219.453v2.719q-.625-.579-1.219-.844-.594-.281-1.219-.281-1.344 0-2.031 1.078-.687 1.062-.687 3.156t.687 3.172q.688 1.062 2.031 1.062.625 0 1.219-.265.594-.281 1.219-.86z"/><text x="149.5" y="332.15" fill="#D9B8FF" font-family="Helvetica" font-size="17" textLength="208">azure_network_interface</text><rect width="299" height="39.789" x="7" y="106.79" fill="#3D176E" rx="2.5" ry="2.5" style="stroke:#000d19;stroke-width:.5"/><circle cx="22" cy="126.684" r="11" fill="#ADD1B2" style="stroke:#181818;stroke-width:1"/><path d="M24.969 132.325q-.578.297-1.219.438-.64.156-1.344.156-2.5 0-3.828-1.64-1.312-1.657-1.312-4.782t1.312-4.781q1.328-1.656 3.828-1.656.703 0 1.344.156.656.156 1.219.453v2.719q-.625-.579-1.219-.844-.594-.281-1.219-.281-1.343 0-2.031 1.078-.687 1.062-.687 3.156t.687 3.172q.688 1.062 2.031 1.062.625 0 1.219-.265.594-.281 1.219-.86z"/><text x="41" y="132.57" fill="#D9B8FF" font-family="Helvetica" font-size="17" textLength="257">azure_network_security_group</text><rect width="154" height="39.789" x="180.5" y="7" fill="#3D176E" rx="2.5" ry="2.5" style="stroke:#000d19;stroke-width:.5"/><circle cx="195.5" cy="26.895" r="11" fill="#ADD1B2" style="stroke:#181818;stroke-width:1"/><path d="M198.469 32.535q-.578.297-1.219.438-.64.156-1.344.156-2.5 0-3.828-1.64-1.312-1.657-1.312-4.782t1.312-4.781q1.328-1.656 3.828-1.656.703 0 1.344.156.656.156 1.219.453v2.719q-.625-.578-1.219-.844-.594-.281-1.219-.281-1.344 0-2.031 1.078-.687 1.062-.687 3.156t.687 3.172q.688 1.062 2.031 1.062.625 0 1.219-.265.594-.281 1.219-.86z"/><text x="214.5" y="32.78" fill="#D9B8FF" font-family="Helvetica" font-size="17" textLength="112">azure_subnet</text><rect width="233" height="39.789" x="209" y="206.58" fill="#3D176E" rx="2.5" ry="2.5" style="stroke:#000d19;stroke-width:.5"/><circle cx="224" cy="226.475" r="11" fill="#ADD1B2" style="stroke:#181818;stroke-width:1"/><path d="M226.969 232.115q-.578.297-1.219.438-.64.156-1.344.156-2.5 0-3.828-1.64-1.312-1.657-1.312-4.782t1.312-4.781q1.328-1.656 3.828-1.656.703 0 1.344.156.656.156 1.219.453v2.719q-.625-.578-1.219-.844-.594-.281-1.219-.281-1.344 0-2.031 1.078-.687 1.062-.687 3.156t.687 3.172q.688 1.062 2.031 1.062.625 0 1.219-.265.594-.281 1.219-.86z"/><text x="243" y="232.36" fill="#D9B8FF" font-family="Helvetica" font-size="17" textLength="191">azure_virtual_machine</text><path fill="none" d="M160.45 146.75c5.33 23.92 15.94 65.9 31.05 99.62 9.63 21.48 20.787 39.192 31.547 54.682" style="stroke:#1a83af;stroke-width:2"/><path fill="#1A83AF" d="m226.47 305.98-1.85-9.674-1.002 5.567-5.568-1.003z" style="stroke:#1a83af;stroke-width:2"/><path fill="none" d="M189.89 147.01c29.63 17.14 67.487 39.044 97.097 56.184" style="stroke:#1a83af;stroke-width:2"/><path fill="#1A83AF" d="m292.18 206.2-5.785-7.97 1.458 5.465-5.466 1.458z" style="stroke:#1a83af;stroke-width:2"/><path fill="none" d="M237.55 47.22c-17.71 17.14-39.128 37.887-56.829 55.017" style="stroke:#1a83af;stroke-width:2"/><path fill="#1A83AF" d="m176.41 106.41 9.249-3.385-5.656-.092.093-5.656z" style="stroke:#1a83af;stroke-width:2"/><path fill="none" d="M280.17 47.07c15.41 14.59 34.54 36.13 43.33 59.72 12.38 33.22 9.902 69.434 6.362 93.534" style="stroke:#1a83af;stroke-width:2"/><path fill="#1A83AF" d="m328.99 206.26 5.265-8.323-4.538 3.376-3.377-4.539z" style="stroke:#1a83af;stroke-width:2"/><path fill="none" d="M308.71 246.8c-14.9 17.14-32.625 37.52-47.515 54.66" style="stroke:#1a83af;stroke-width:2"/><path fill="#1A83AF" d="m257.26 305.99 8.922-4.171-5.643.396-.396-5.642z" style="stroke:#1a83af;stroke-width:2"/></svg>
